packages/foundations/assets/icons/functional/images/transportation/taxi_20.svg

<svg width="20" height="20" viewBox="0 0 20 20" fill="none" xmlns="http://www.w3.org/2000/svg">
<g clip-path="url(#clip0_187_949)">
<path fill-rule="evenodd" clip-rule="evenodd" d="M13 2.5V4.006L13.7055 4.00673C14.5186 4.0736 15.1989 4.63287 15.4899 5.4101C15.6302 5.88012 15.9012 7.07675 16.303 9H18V11.0034L16.895 11C16.7408 12.446 16.6408 13.3224 16.595 13.629C16.5199 14.0189 16.303 14.5033 16 14.825V17.5H13.5V15.741C12.3333 15.9137 11.1667 16 10 16C8.83333 16 7.66667 15.9137 6.5 15.741V17.5H4V14.825C3.76027 14.6127 3.53706 14.137 3.45001 13.8214C3.38052 13.5777 3.26519 12.6373 3.104 11L2 11.0034V9H3.696L4.45716 5.56837C4.69517 4.7633 5.33944 4.15789 6.13374 4.02659C6.32989 4.00184 6.61864 3.99498 7 4.006V2.5H13ZM15 11.15H13.25V12.85H15V11.15ZM6.75 11.15H5V12.85H6.75V11.15ZM12 11.15H8V12.85H12V11.15ZM13.9137 5.7H6.08626L5.443 9H14.556L13.9137 5.7Z" fill="#1A1C1F"/>
</g>
<defs>
<clipPath id="clip0_187_949">
<rect width="20" height="20" fill="white"/>
</clipPath>
</defs>
</svg>

<svg xmlns="http://www.w3.org/2000/svg" width="20" height="20" fill="none"><g clip-path="url(#a)"><path fill="#1A1C1F" fill-rule="evenodd" d="M13 2.5v1.506h.706c.813.068 1.493.627 1.784 1.404q.21.705.813 3.59H18v2.003L16.895 11a97 97 0 0 1-.3 2.629c-.075.39-.292.874-.595 1.196V17.5h-2.5v-1.759a23.9 23.9 0 0 1-7 0V17.5H4v-2.675c-.24-.212-.463-.688-.55-1.004q-.105-.365-.346-2.821L2 11.003V9h1.696l.761-3.432c.238-.805.882-1.41 1.677-1.541q.294-.038.866-.021V2.5zm2 8.65h-1.75v1.7H15zm-8.25 0H5v1.7h1.75zm5.25 0H8v1.7h4zm1.914-5.45H6.086L5.443 9h9.113z" clip-rule="evenodd"/></g><defs><clipPath id="a"><path fill="#fff" d="M0 0h20v20H0z"/></clipPath></defs></svg>
